src/asset/img/constelationCoulisses.svg

<svg xmlns="http://www.w3.org/2000/svg" viewBox="0 0 1920 1080" fill-rule="evenodd" stroke-linecap="round" stroke-linejoin="round" stroke-miterlimit="1.5" xmlnsV="https://vecta.io/nano"><g opacity=".75" transform="matrix(.965856 .116772 -.116772 .965856 195.602 -130.417)" fill="none" stroke="#fff"><path d="M1227.79 960.392l108.99 56.618 195.6-12.12-96.87-268.36 92.29-74.287" stroke-width="4.28"/><path d="M1435.518 736.534l-161.446 35.169" stroke-width="4.286"/><path d="M1435.51 736.53l-109.96-189.2m-97.76 413.062l-42.95-116.28" stroke-width="4.28"/><path d="M1527.799 662.243l-87.429-182.55" stroke-width="4.283"/><path d="M1532.38 1004.89l40.53-30.568 89.61-50.463m0 0l-65.07-79.747 17.89-113.507 81.38-12.989 44.44 82.723" stroke-width="4.28"/></g></svg>

<?xml version="1.0" encoding="UTF-8" standalone="no"?>
<!DOCTYPE svg PUBLIC "-//W3C//DTD SVG 1.1//EN" "http://www.w3.org/Graphics/SVG/1.1/DTD/svg11.dtd">
<svg width="100%" height="100%" viewBox="0 0 1920 1080" version="1.1" xmlns="http://www.w3.org/2000/svg" xmlns:xlink="http://www.w3.org/1999/xlink" xml:space="preserve" xmlns:serif="http://www.serif.com/" style="fill-rule:evenodd;clip-rule:evenodd;stroke-linecap:round;stroke-linejoin:round;stroke-miterlimit:1.5;">
    <g id="_4--Constellation-coulisses" serif:id="4- Constellation coulisses" transform="matrix(0.965856,0.116772,-0.116772,0.965856,195.602,-130.417)">
        <g opacity="0.75">
            <path d="M1227.79,960.392L1336.78,1017.01L1532.38,1004.89L1435.51,736.53L1527.8,662.243" style="fill:none;stroke:white;stroke-width:4.28px;"/>
            <g transform="matrix(1.02044,-0.12337,0.12337,1.02044,-108.74,129.832)">
                <path d="M1420.68,766.308L1260.64,781.424" style="fill:none;stroke:white;stroke-width:4.17px;"/>
            </g>
            <path d="M1435.51,736.53L1325.55,547.33" style="fill:none;stroke:white;stroke-width:4.28px;"/>
            <path d="M1227.79,960.392L1184.84,844.112" style="fill:none;stroke:white;stroke-width:4.28px;"/>
            <g transform="matrix(0.712663,0,0,0.953149,413.871,22.4743)">
                <path d="M1563.05,671.216L1440.37,479.693" style="fill:none;stroke:white;stroke-width:5.09px;"/>
            </g>
            <path d="M1532.38,1004.89L1572.91,974.322L1662.52,923.859" style="fill:none;stroke:white;stroke-width:4.28px;"/>
            <path d="M1662.52,923.859L1597.45,844.112L1615.34,730.605L1696.72,717.616L1741.16,800.339" style="fill:none;stroke:white;stroke-width:4.28px;"/>
        </g>
    </g>
</svg>
